X: 1
T: Palmer's Gate
R: reel
M: 4/4
L: 1/8
K: Emin
GA|:BE(3EEE Gz BG |AcBA GEDE|~G3A BAGA|BedB A2 GA|
BE(3EEE Gz BG|AcBA GEDE|G2(3Bcd edBA|GEFD E2 GA:|
|:Beed ~e3f|g2fg edBA|G2BG dGBA|GABe dBA2|
Beed ~e3f|g2fg edBA|G2(3Bcd edBA|GEFD E2 GA:|


Tune 1020	Setting 24315

